X: 15538
T: Glenties, The
R: mazurka
M: 3/4
K: Dmajor
d>e|f2 f>e d>B|A2 F2 A2|B2 G2 B2|A>F A2 d>e|
f2 f>e d>B|(3ABA F>A F>A|B2 c>B A2|d3 A d>e|
f>A (3gfe d>B|A2 F2 A2|(3BcB G>B G>B|A2 F>A d>e|
f2 f>e d>B|A2 (3FGA F>A|B2 c>B A>c|d4||
(3Ade|f>A d>f a>f|g>f g2 A>c|e>A c>e g>e|f>A d>F A>d|
f2 (3Adf a>f|g4 A>c|e2 e>g f>e|d4 (3Ade|
f2 f2 a>f|g2 g2 A>c|e2 e2 g>e|f2 f2 A>d|
f>A d>f (3agf|g>f e>d c>B|A>G F>E D>C|D4||

